public/svg/dress1.svg

<svg width="182" height="331" viewBox="0 0 182 331" fill="none" xmlns="http://www.w3.org/2000/svg">
<path fill-rule="evenodd" clip-rule="evenodd" d="M70.5319 314.545L70.3155 315.391L70.5319 314.545ZM66.5945 321.237C58.5871 321.237 47.1754 322.894 46.5133 314.938C50.735 314.844 60.2873 312.97 67.7758 312.97C67.2902 315.054 66.5945 318.794 66.5945 321.237ZM70.5319 314.545V312.576H71.7133C71.3795 314.009 71.496 313.839 70.5319 314.545ZM128.413 315.726C122.593 315.726 112.388 312.399 103.445 311.164C94.844 309.976 85.2739 310.214 75.6507 310.214C77.5252 306.673 85.601 283.542 87.2115 278.075C91.3572 264 93.2133 257.53 95.4077 242.178C97.5068 227.492 99.0868 209.948 101.125 194.748C103.162 179.553 103.706 163.107 106.084 146.954C107.428 137.822 108.944 125.304 110.861 116.693C113.002 107.072 114.276 96.7134 117.614 88.015C118.881 84.7141 121.324 77.9554 123.688 76.3727C127.978 79.5147 126.854 116.792 126.838 124.007C126.831 126.961 127.217 128.633 127.248 131.077C127.312 136.301 127.549 140.243 127.61 145.281L128.393 159.064C128.572 161.236 128.37 163.913 128.398 166.146C128.499 174.38 129.625 184.896 129.585 194.483C129.544 204.578 133.591 232.801 134.691 240.556C135.286 244.757 135.908 249.277 136.277 253.536L137.096 267.283C137.821 276.046 139.736 299.721 136.451 309.196C135.111 313.06 133.435 315.726 128.413 315.726ZM101.244 164.949C101.244 172.078 98.5727 196.567 97.4771 204.486C95.6118 217.973 94.6925 230.92 92.8576 243.566C91.9574 249.77 90.874 256.106 89.5144 261.875C87.5631 270.153 82.3367 285.919 78.967 294.633C77.0869 299.496 75.0742 306.066 72.8946 310.608H70.9258C71.5653 307.864 71.8448 304.464 72.2772 301.33C72.7664 297.785 73.2582 295.039 73.7007 291.73C74.4902 285.826 78.365 271.247 80.0631 265.023C85.3948 245.482 89.2009 221.283 93.4681 201.265L100.608 167.068C100.621 167.003 100.78 166.237 100.819 166.098L101.011 165.503C101.038 165.424 101.102 165.286 101.125 165.223C101.148 165.161 101.191 165.033 101.244 164.949ZM101.244 164.949V163.374C101.712 164.11 101.687 162.495 101.569 164.162C101.51 165.002 101.521 164.513 101.244 164.949ZM105.97 127.156L92.1927 196.053C91.2806 199.777 90.5739 203.426 89.7298 207.37C88.9338 211.089 88.052 214.955 87.2336 219.046C85.6795 226.817 84.1381 234.618 82.8478 242.218C79.6447 261.086 73.3959 276.029 69.9722 298.238C69.6509 300.321 69.3393 302.622 69.0778 304.43C68.7814 306.48 68.2092 308.827 68.1695 310.608C65.4541 311.24 55.7947 311.739 51.7051 312.256C50.6664 312.387 50.2391 312.516 48.8506 312.596L46.4478 312.181L46.5639 309.9C46.6826 308.956 47.0143 307.399 47.2128 306.583C48.1756 302.627 59.0689 271.959 60.9335 266.368L72.3507 231.723C75.4176 222.456 81.0583 206.154 83.609 196.92C86.5607 186.235 92.8211 167.746 96.473 156.242L102.181 138.722C102.848 136.734 103.343 134.801 103.949 133.01C104.483 131.434 105.164 128.316 105.97 127.156ZM105.97 127.156C105.97 125.147 105.964 126.503 106.363 125.975C106.363 128.057 106.361 126.562 105.97 127.156ZM113.057 90.5447L113.174 90.662C113.167 90.6545 113.018 90.5839 113.057 90.5447ZM44.1509 312.97L11.8751 315.346C9.68526 315.42 2.41339 315.415 2.41339 312.97C2.41339 309.167 7.30924 301.579 9.18142 298.478C15.058 288.745 18.8216 281.36 24.1958 271.76L31.0296 257.335C35.9686 247.455 41.2049 234.982 45.9832 225.045C54.8244 206.659 61.7062 187.907 69.7292 170.051C77.0779 153.696 82.8046 142.891 90.3501 127.68C91.6033 125.154 92.7333 123.311 94.0258 120.726L104.115 99.3192C105.288 96.5752 106.333 94.6082 107.549 92.1239C108.193 90.807 110.142 86.1221 111.088 85.0333C111.088 88.8706 107.283 115.502 106.709 117.266C102.249 130.967 98.2707 145.06 93.5174 159.192L89.1216 173.299C87.0165 180.913 84.7246 187.107 82.5963 194.333L71.468 229.266C64.6172 249.808 55.7497 277.843 47.9207 298.236C46.5148 301.899 44.1509 308.333 44.1509 312.97ZM116.601 83.4587C116.697 79.1476 118.176 74.3963 118.176 68.4991C126.018 68.4991 126.476 67.8008 132.524 70.688C133.945 71.3663 134.366 71.5197 135.418 72.5186C139.789 76.6692 140.163 85.4728 140.213 92.5263C140.256 98.6463 143.954 120.244 144.883 126.831C146.484 138.185 148.297 149.589 149.292 161.395C149.76 166.946 151.105 172.892 151.609 178.369C152.147 184.204 153.157 190.18 153.939 195.723L159.554 229.084C161.728 239.982 163.037 251.315 165.261 262.35C167.474 273.328 169.948 283.508 172.954 293.633C174.406 298.525 175.581 303.885 176.849 309.029C178.483 315.663 179.207 321.317 179.207 328.717C175.67 328.717 162.084 323.639 155.9 322.1C151.773 321.072 147.743 320.52 143.155 319.883C134.745 318.716 115.807 318.591 106.744 318.862L75.6574 320.85C73.2413 320.828 72.3325 321.087 70.5319 321.237C70.6515 319.803 74.279 312.183 75.6507 312.183C86.5995 312.183 93.2273 312.009 104.283 313.475C115.987 315.028 130.553 322.333 136.362 315.012C142.681 307.05 140.162 289.346 140.231 279.503L138.378 251.83L134.831 225.85C134.5 223.567 134.159 221.346 133.962 219.24L131.941 198.82C131.883 193.857 131.732 189.427 131.576 184.226C131.508 181.94 131.16 180.391 131.178 177.538L130.403 163.353C130.207 160.987 130.557 158.281 130.361 155.915C129.024 139.764 128.807 114.747 128.807 98.4182C128.807 91.6465 129.213 73.6167 123.688 73.6167C120.481 73.6167 117.822 81.7015 116.601 83.4587ZM107.938 67.7116C108.825 66.5021 107.685 67.0765 109.513 66.9244C108.596 68.1754 109.785 67.5186 107.938 67.7116ZM119.357 51.5712C119.75 51.4322 119.145 50.47 120.145 52.3585C118.616 51.9504 119.371 51.597 119.357 51.5712ZM121.719 48.8155C121.578 48.0705 122.215 47.4154 121.969 48.5662C121.963 48.593 121.98 50.1897 121.719 48.8155ZM120.538 44.8786C121.708 45.7358 121.708 45.5962 120.538 46.4534C120.194 45.7085 120.055 45.6208 120.538 44.8786ZM106.757 45.2724L107.604 45.4889L106.757 45.2724ZM91.4008 42.5167C93.6727 43.0458 95.6816 43.8678 97.867 44.7125C105.133 47.5212 108.905 48.5203 115.813 53.1457C115.306 53.9036 114.577 54.8247 113.934 55.5974C113.077 56.6284 112.708 57.2732 111.937 58.3247C110.894 59.7463 108.782 62.0914 108.332 63.775C106.389 63.6134 103.713 61.3179 102.516 60.142C100.943 58.5975 99.5363 56.8453 98.268 54.9407L91.4008 42.5167ZM123.294 42.5167L123.412 42.634C123.404 42.6263 123.255 42.5558 123.294 42.5167ZM117.388 39.3674C121.254 41.9553 118.804 45.4428 117.388 39.3674V39.3674ZM133.532 68.1055C129.852 67.7993 129.907 65.2959 122.509 65.3473C117.98 65.3786 111.615 64.5623 109.907 64.5623C111.205 62.6235 115.973 55.3636 117.388 54.3269C120.586 56.4675 122.44 59.0508 123.688 59.0508C126.424 59.0508 124.633 55.7514 124.614 55.0641C124.571 53.4832 126.227 53.6757 124.521 46.746C124.131 45.1583 123.801 45.4039 125.777 43.0325C127.385 41.1026 129.25 38.257 131.181 37.0163C136.037 33.8945 142.839 29.9191 148.888 29.9191C148.843 31.9491 146.337 36.2737 145.06 39.4763C143.725 42.8252 142.672 45.8606 141.351 49.1532L133.532 68.1055ZM135.107 32.2811C135.813 31.3175 135.643 31.4337 137.076 31.1002C136.369 32.0639 136.54 31.9474 135.107 32.2811ZM76.0445 29.9191C76.7508 28.9554 76.5805 29.0719 78.0134 28.7381C78.9296 29.3515 82.7537 34.2777 83.5258 35.4305L76.7604 31.1716C75.562 29.928 76.6377 31.0476 76.0445 29.9191ZM106.757 45.2724L90.7696 39.6047C88.9797 38.874 88.7067 38.688 87.6892 37.1729C86.8232 35.8836 86.2549 35.1617 85.4192 33.9311C84.0799 31.9591 81.16 29.0195 80.7694 27.5572C83.0129 27.0346 82.3231 26.8893 87.1689 31.3945C90.17 34.1849 96.5638 38.8249 99.831 40.7804C101.693 41.8945 105.725 43.8642 106.757 45.2724ZM140.226 26.3761L139.832 26.7697L140.226 26.3761ZM118.176 50.39C116.24 50.2291 115.08 48.6915 113.943 47.5364C107.381 40.8749 97.9783 38.3127 87.1246 27.8492C86.1209 26.8816 85.2727 26.5255 86.7164 26.0828C89.9421 25.0939 95.7196 25.7824 99.192 26.8534C103.209 28.0923 110.911 31.0501 112.564 35.1364L116.828 45.0449C117.857 47.5327 118.754 47.9063 118.176 50.39ZM78.8008 24.014C80.3689 24.1444 80.0851 24.173 80.7694 25.1951C79.1521 25.5719 79.0663 26.0838 78.8008 24.014ZM76.0445 20.0773L76.162 20.1946C76.1543 20.1869 76.0053 20.1166 76.0445 20.0773ZM76.4382 16.1405C85.1324 16.1405 98.9311 13.8517 106.828 20.0062C109.091 21.7698 110.236 26.2279 110.301 29.1318C107.177 27.0402 102.55 25.3679 98.3608 24.1413C93.5633 22.7366 88.1327 23.3346 83.5258 24.4076C82.5623 22.9689 81.1134 21.9487 79.982 20.471C78.8182 18.9513 77.5663 17.8248 76.4382 16.1405ZM140.226 26.3761C142.074 23.6168 149.843 16.9442 152.819 14.9522C154.392 13.8992 157.067 11.7043 157.157 15.747C155.957 16.0672 141.792 25.958 140.226 26.3761ZM61.0821 3.14936C62.463 4.07377 65.9206 9.25899 67.4753 10.9298C68.0937 11.5941 70.7655 14.0366 70.9882 14.5074C72.0706 16.7965 69.4587 14.7479 72.5008 19.29C70.0638 18.7223 66.8652 16.9931 64.3982 15.9745C62.2641 15.0933 58.1351 12.3518 56.357 12.2038C56.7813 10.3836 60.3537 5.8769 61.0821 3.14936ZM137.076 31.1002C138.366 29.3401 151.167 21.7999 153.873 20.3374C156.058 19.1567 157.642 17.7912 159.519 16.5341C159.519 -0.591512 135.105 30.0612 131.886 32.2108C129.838 33.5788 128.604 34.5328 126.667 36.0464L121.719 40.1547C114.92 30.0028 115.105 37.0429 111.956 24.3281C111.563 22.7429 111.206 20.6805 110.387 19.5973C106.12 13.9556 90.966 12.7984 84.5996 13.6709C82.5807 13.9477 80.4451 13.7318 78.3909 13.7634C75.3622 13.8097 74.9427 15.0305 73.1741 13.1107L64.4011 2.58665C62.8449 0.484013 63.1515 0 60.2946 0C58.8885 2.0993 58.0361 4.38415 56.6797 6.6212C55.2116 9.04255 52.8642 11.1026 52.8134 13.385C54.3513 14.1985 54.4256 13.8855 56.074 14.4553C59.4533 15.6235 65.7494 19.5476 72.3592 21.7936C74.8302 22.6333 76.2197 24.1419 76.832 26.7697C74.7553 27.2535 71.9061 29.3282 73.8059 32.1459C74.9922 33.9054 83.0108 38.5258 85.2372 39.6245C91.9061 42.9156 93.9419 59.5657 106.363 66.1371C105.849 68.3432 103.38 71.0754 104.788 74.0106C107.168 73.8125 106.757 72.9023 106.757 70.4674C109.766 70.4674 110.329 69.732 112.663 69.6801C112.663 78.013 110.015 81.2738 106.363 88.5765C104.952 91.3979 103.734 94.1192 102.29 97.1016C99.4744 102.917 97.3133 109.048 94.4195 114.821C92.9411 117.771 91.8575 120.423 90.3551 123.355L81.5569 140.147C80.1462 142.969 78.8236 145.613 77.3569 148.546C76.5878 150.084 75.9744 151.32 75.2554 152.743C70.2109 162.733 65.9176 173.267 61.7579 183.734L34.4435 245.788C31.6474 251.613 28.6792 257.144 26.2045 263.14C23.6707 269.278 20.4187 274.266 17.5123 280.038L12.9729 288.097C9.99895 293.01 -0.285099 308.169 0.00605966 313.379C0.231473 317.413 5.05657 317.7 8.31963 317.698L14.2246 317.299C18.5258 317.315 42.467 315.746 44.1509 314.938C46.6158 325.517 55.0697 323.318 64.6574 323.568C67.5976 323.644 65.8027 323.716 67.3824 324.463C69.2246 325.333 68.5698 324.579 69.5253 323.798C70.5386 322.97 74.8693 322.927 76.0679 322.835C81.0078 322.456 85.1903 322.285 90.2209 322.026L103.773 321.01C107.143 320.5 110.806 321.031 114.24 320.845C115.752 320.763 116.173 320.45 117.785 320.421L124.475 320.845C129.354 320.826 133.968 320.719 138.938 321.343C149.565 322.678 159.105 324.807 168.728 328.171C182.823 333.099 183.103 332.584 181.108 318.549C178.714 301.711 173.255 287.53 169.52 271.084C165.853 254.942 163.583 238.228 160.535 221.41C155.996 196.37 152.668 169.802 149.709 144.051C148.707 135.327 147.289 126.882 146.067 118.167C145.009 110.626 142.802 99.8058 142.575 92.1322C142.42 86.8714 142.35 83.2074 141.386 78.7556C139.876 71.7775 137.789 72.8029 135.501 69.6801C136.227 66.5626 147.631 39.085 149.943 34.5172C152.902 28.6734 150.45 26.0582 143.816 28.3912C141.751 29.1178 139.219 30.601 137.076 31.1002Z" fill="#FEFEFE"/>
</svg>

<svg xmlns="http://www.w3.org/2000/svg" width="182" height="331" fill="none" xmlns:v="https://vecta.io/nano"><path fill-rule="evenodd" d="M70.532 314.545l-.216.846.216-.846zm-3.937 6.692c-8.007 0-19.42 1.657-20.08-6.3 4.222-.094 13.774-1.968 21.263-1.968-.486 2.084-1.18 5.824-1.18 8.267zm3.937-6.692v-1.97h1.18c-.334 1.433-.217 1.263-1.18 1.97zm57.88 1.18c-5.82 0-16.025-3.327-24.968-4.562-8.6-1.188-18.17-.95-27.794-.95 1.874-3.54 9.95-26.672 11.56-32.14 4.146-14.075 6.002-20.545 8.196-35.897 2.1-14.686 3.68-32.23 5.717-47.43 2.037-15.195 2.58-31.64 4.96-47.794 1.344-9.132 2.86-21.65 4.777-30.26 2.14-9.62 3.415-19.98 6.753-28.678 1.267-3.3 3.7-10.06 6.074-11.642 4.3 3.142 3.166 40.42 3.15 47.634-.007 2.954.38 4.626.4 7.07l.362 14.204.783 13.783c.18 2.172-.023 4.85.005 7.082.1 8.234 1.227 18.75 1.187 28.337-.04 10.095 4.006 38.318 5.106 46.073.595 4.2 1.217 8.72 1.586 12.98l.82 13.747c.725 8.763 2.64 32.438-.645 41.913-1.34 3.864-3.016 6.53-8.038 6.53zm-27.17-150.777c0 7.13-2.67 31.618-3.767 39.537-1.865 13.487-2.785 26.434-4.62 39.08-.9 6.204-1.984 12.54-3.343 18.31-1.95 8.278-7.178 24.044-10.547 32.758-1.88 4.863-3.893 11.433-6.072 15.975h-1.97c.64-2.744.92-6.144 1.35-9.278l1.424-9.6c.8-5.904 4.664-20.483 6.362-26.707 5.332-19.54 9.138-43.74 13.405-63.758l7.14-34.197a33.83 33.83 0 0 1 .211-.97l.192-.595c.027-.08.09-.217.114-.28s.066-.2.12-.274zm0 0v-1.575c.468.736.443-.88.325.788-.06.84-.048.35-.325.787zm4.726-37.793l-13.777 68.897c-.912 3.724-1.62 7.373-2.463 11.317l-2.496 11.676-4.386 23.172c-3.203 18.868-9.452 33.81-12.876 56.02l-.894 6.192c-.296 2.05-.87 4.397-.908 6.178-2.715.632-12.375 1.13-16.464 1.648-1.04.13-1.466.26-2.855.34l-2.403-.415.116-2.28c.12-.944.45-2.5.65-3.317.963-3.956 11.856-34.624 13.72-40.215l11.417-34.645L83.61 196.92c2.952-10.685 9.212-29.174 12.864-40.678l5.708-17.52c.667-1.988 1.162-3.92 1.768-5.712.534-1.576 1.215-4.694 2.02-5.854zm0 0c0-2.01-.006-.653.393-1.18 0 2.082-.002.587-.393 1.18zm7.087-36.61l.117.117c-.007-.008-.156-.078-.117-.117zM44.15 312.97l-32.276 2.376c-2.2.074-9.462.07-9.462-2.376 0-3.803 4.896-11.39 6.768-14.492 5.877-9.733 9.64-17.118 15.014-26.718l6.834-14.425c4.94-9.88 10.175-22.353 14.954-32.3 8.84-18.386 15.723-37.138 23.746-54.994 7.35-16.355 13.075-27.16 20.62-42.37 1.253-2.526 2.383-4.37 3.676-6.954l10.09-21.407c1.173-2.744 2.218-4.71 3.434-7.195.644-1.317 2.593-6.002 3.54-7.09 0 3.837-3.805 30.47-4.38 32.233l-13.192 41.926-4.396 14.107c-2.105 7.614-4.397 13.808-6.525 21.034l-11.128 34.933c-6.85 20.542-15.718 48.577-23.547 68.97-1.406 3.663-3.77 10.097-3.77 14.734zM116.6 83.46c.096-4.31 1.575-9.062 1.575-14.96 7.842 0 8.3-.698 14.348 2.19 1.42.678 1.842.832 2.894 1.83 4.37 4.15 4.745 12.954 4.795 20.008.043 6.12 3.74 27.718 4.67 34.305 1.6 11.354 3.414 22.758 4.41 34.564.468 5.55 1.813 11.497 2.317 16.974.538 5.835 1.548 11.81 2.33 17.354l5.615 33.36c2.174 10.898 3.483 22.23 5.707 33.266 2.213 10.978 4.687 21.158 7.693 31.283 1.452 4.892 2.627 10.252 3.895 15.396 1.634 6.634 2.358 12.288 2.358 19.688-3.537 0-17.123-5.078-23.307-6.617-4.127-1.028-8.157-1.58-12.745-2.217-8.4-1.167-27.348-1.292-36.41-1.02l-31.087 1.988c-2.416-.022-3.325.237-5.126.387.12-1.434 3.747-9.054 5.12-9.054 10.95 0 17.577-.174 28.632 1.292 11.704 1.553 26.27 8.858 32.08 1.537 6.32-7.962 3.8-25.666 3.87-35.51l-1.853-27.673-3.547-25.98c-.33-2.283-.672-4.504-.87-6.6l-2.02-20.42-.365-14.594c-.068-2.286-.416-3.835-.398-6.688l-.775-14.185c-.196-2.366.154-5.072-.042-7.438-1.337-16.15-1.554-41.168-1.554-57.497 0-6.772.406-24.802-5.12-24.802-3.207 0-5.866 8.085-7.087 9.842zm-8.663-15.747c.887-1.2-.253-.635 1.575-.787-.917 1.25.272.594-1.575.787zm11.42-16.14c.393-.14-.212-1.1.788.787-1.53-.408-.774-.76-.788-.787zm2.362-2.756c-.14-.745.496-1.4.25-.25-.006.027.01 1.624-.25.25zm-1.18-3.937c1.17.857 1.17.718 0 1.575-.344-.745-.483-.833 0-1.575zm-13.78.394l.847.217-.847-.217zM91.4 42.517c2.272.53 4.28 1.35 6.466 2.196 7.266 2.81 11.038 3.808 17.946 8.433-.507.758-1.236 1.68-1.88 2.452-.857 1.03-1.226 1.676-1.997 2.727-1.043 1.422-3.155 3.767-3.605 5.45-1.943-.162-4.62-2.457-5.816-3.633-1.573-1.545-2.98-3.297-4.248-5.2L91.4 42.517zm31.893 0l.118.117c-.008-.008-.157-.078-.118-.117zm-5.906-3.15c3.866 2.588 1.416 6.075 0 0h0zm16.144 28.738c-3.68-.306-3.625-2.8-11.023-2.758-4.53.03-10.894-.785-12.602-.785 1.298-1.94 6.066-9.2 7.48-10.235 3.198 2.14 5.052 4.724 6.3 4.724 2.736 0 .945-3.3.926-3.987-.043-1.58 1.613-1.388-.093-8.318-.4-1.588-.72-1.342 1.256-3.714 1.608-1.93 3.473-4.776 5.404-6.016 4.856-3.122 11.658-7.097 17.707-7.097-.045 2.03-2.55 6.355-3.828 9.557l-3.71 9.677-7.82 18.952zm1.575-35.824c.706-.964.536-.847 1.97-1.18-.707.964-.536.847-1.97 1.18zM76.045 29.92c.706-.964.536-.847 1.97-1.18.916.613 4.74 5.54 5.512 6.692l-6.765-4.26c-1.198-1.244-.123-.124-.716-1.253zm30.713 15.353L90.77 39.605c-1.8-.73-2.063-.917-3.08-2.432-.866-1.29-1.434-2.01-2.27-3.242-1.34-1.972-4.26-4.912-4.65-6.374 2.243-.523 1.554-.668 6.4 3.837 3 2.8 9.395 7.43 12.662 9.386 1.862 1.114 5.894 3.084 6.926 4.492zm33.47-18.896l-.394.394.394-.394zM118.176 50.4c-1.936-.16-3.096-1.7-4.233-2.854-6.562-6.662-15.965-9.224-26.818-19.687-1.004-.968-1.852-1.324-.408-1.766 3.226-.99 9.003-.3 12.476.77 4.017 1.24 11.72 4.197 13.372 8.283l4.264 9.908c1.03 2.488 1.926 2.86 1.348 5.345zM78.8 24.014c1.568.13 1.284.16 1.97 1.18-1.617.377-1.703.89-1.97-1.18zm-2.756-3.937l.118.117c-.008-.008-.157-.078-.118-.117zm.394-3.937c8.694 0 22.493-2.29 30.4 3.866 2.263 1.764 3.408 6.222 3.473 9.126-3.124-2.092-7.75-3.764-11.94-5-4.797-1.405-10.228-.807-14.835.266-.964-1.44-2.412-2.46-3.544-3.937-1.164-1.52-2.416-2.646-3.544-4.33zm63.788 10.236c1.848-2.76 9.617-9.432 12.593-11.424 1.573-1.053 4.248-3.248 4.338.795-1.2.32-15.365 10.21-16.93 10.63zM61.082 3.15c1.38.924 4.838 6.1 6.393 7.78.618.664 3.3 3.107 3.513 3.578 1.082 2.29-1.53.24 1.513 4.783-2.437-.568-5.636-2.297-8.103-3.315-2.134-.88-6.263-3.623-8.04-3.77.424-1.82 3.997-6.327 4.725-9.054zm75.994 27.95c1.3-1.76 14.09-9.3 16.797-10.763 2.185-1.18 3.77-2.546 5.646-3.803 0-17.126-24.414 13.527-27.633 15.677-2.048 1.368-3.282 2.322-5.22 3.836l-4.948 4.108c-6.8-10.152-6.614-3.112-9.763-15.827-.393-1.585-.75-3.648-1.57-4.73-4.267-5.642-19.42-6.8-25.787-5.926-2.02.277-4.154.06-6.21.093-3.03.046-3.448 1.267-5.217-.653L64.4 2.587C62.845.484 63.152 0 60.295 0c-1.406 2.1-2.26 4.384-3.615 6.62-1.468 2.42-3.815 4.48-3.866 6.764 1.538.813 1.612.5 3.26 1.07 3.38 1.168 9.675 5.092 16.285 7.338 2.47.84 3.86 2.348 4.473 4.976-2.077.484-4.926 2.558-3.026 5.376 1.186 1.76 9.205 6.38 11.43 7.48 6.67 3.29 8.705 19.94 21.126 26.513-.514 2.206-2.983 4.938-1.575 7.873 2.38-.198 1.97-1.108 1.97-3.543 3.01 0 3.572-.735 5.906-.787 0 8.333-2.648 11.594-6.3 18.896-1.41 2.82-2.63 5.543-4.073 8.525-2.816 5.815-4.977 11.946-7.87 17.72-1.478 2.95-2.562 5.602-4.064 8.534l-8.798 16.792-4.2 8.4-2.102 4.197c-5.044 10-9.338 20.524-13.497 30.99l-27.314 62.054c-2.796 5.825-5.764 11.356-8.24 17.352-2.534 6.138-5.786 11.126-8.692 16.898l-4.54 8.06C10 293-.285 308.17.006 313.38c.225 4.034 5.05 4.32 8.314 4.32l5.905-.4c4.3.016 28.242-1.553 29.926-2.36 2.465 10.58 10.92 8.38 20.506 8.63 2.94.076 1.145.148 2.725.895 1.842.87 1.187.116 2.143-.665 1.013-.828 5.344-.87 6.543-.963 4.94-.38 9.122-.55 14.153-.81L103.773 321c3.37-.5 7.033.02 10.467-.165 1.512-.082 1.933-.395 3.545-.424l6.7.424c4.88-.02 9.493-.126 14.463.498 10.627 1.335 20.167 3.464 29.8 6.828 14.095 4.928 14.375 4.413 12.38-9.622-2.394-16.838-7.853-31.02-11.588-47.465-3.667-16.142-5.937-32.856-8.985-49.674-4.54-25.04-7.867-51.608-10.826-77.36-1.002-8.724-2.42-17.17-3.642-25.884-1.058-7.54-3.265-18.36-3.492-26.035-.155-5.26-.225-8.925-1.19-13.377-1.5-6.978-3.597-5.953-5.885-9.076.726-3.117 12.13-30.595 14.442-35.163 2.96-5.844.507-8.46-6.127-6.126-2.065.727-4.597 2.2-6.74 2.71z" fill="#fefefe"/></svg>
